src/assets/images/blogs/solarGraphLinear.svg

<svg xmlns="http://www.w3.org/2000/svg" width="24" height="24" fill="none"><path fill="#DAE6EB" stroke="#DAE6EB" stroke-width="1.5" d="M2 12c0-4.714 0-7.071 1.464-8.536C4.93 2 7.286 2 12 2s7.071 0 8.535 1.464C22 4.93 22 7.286 22 12s0 7.071-1.465 8.535C19.072 22 16.714 22 12 22s-7.071 0-8.536-1.465C2 19.072 2 16.714 2 12Z"/><path stroke="#E01A1A" stroke-linecap="round" stroke-width="1.5" d="m7 14 1.797-2.156c.712-.855 1.068-1.282 1.536-1.282.469 0 .825.427 1.537 1.282l.26.312c.712.855 1.068 1.282 1.537 1.282s.824-.427 1.536-1.282L17 10"/></svg>

<svg width="24" height="24" viewBox="0 0 24 24" fill="none" xmlns="http://www.w3.org/2000/svg">
<path d="M2 12C2 7.286 2 4.929 3.464 3.464C4.93 2 7.286 2 12 2C16.714 2 19.071 2 20.535 3.464C22 4.93 22 7.286 22 12C22 16.714 22 19.071 20.535 20.535C19.072 22 16.714 22 12 22C7.286 22 4.929 22 3.464 20.535C2 19.072 2 16.714 2 12Z" fill="#DAE6EB" stroke="#DAE6EB" stroke-width="1.5"/>
<path d="M7 14L8.797 11.844C9.509 10.989 9.865 10.562 10.333 10.562C10.802 10.562 11.158 10.989 11.87 11.844L12.13 12.156C12.842 13.011 13.198 13.438 13.667 13.438C14.136 13.438 14.491 13.011 15.203 12.156L17 10" stroke="#E01A1A" stroke-width="1.5" stroke-linecap="round"/>
</svg>
